X: 2394
T: Balcomie House
R: jig
M: 6/8
K: Gmajor
|:"G"d2d Bdg|"G"d2e dBG|"D"A3 AGA|"G"BcB "D7"ABc|
"G"d2d Bdg|"G"d2e dBG|"D7"DFA cAF|"G"G3:|
|:"G"D3 BDG|"C"E3 cEG|"D7"F3 DFA|"G"G3 DGB|
"G"D3 BDG|"C"E3 cEG|"D7"DFA cAF|"G"G3:|

